X:1
T:Title
%%score [ ( 1 2 ) ( 3 4 ) ] { ( 5 6 ) | ( 7 8 ) }
L:1/8
Q:1/4=120
M:4/4
K:A
V:1 treble nm="Midi_74"
V:2 treble 
V:3 bass nm="Midi_74"
V:4 bass 
V:5 treble nm="Org."
V:6 treble 
V:7 bass 
V:8 bass 
V:1
 (c6 A2) | F4 d2 B2 |{A} G8 || (e6 d2) | c4 e4 | e4 ^d4 | e8 || (G6 A2) | B4 (f2 e2) | e8 || d8 | %11
 c4 e4 |"^John Camidge\n(1790-1859)" f4 G4 | A8 |] %14
V:2
 E8 | D4 D4 | E8 || E8 | E4 E4 | A4 F4 | E8 || (E6 F2) | G4 G4 | A8 || E8 | E4 E4 | D4 B,4 | A,8 |] %14
V:3
 A,8 | A,4 B,4 |{C} B,8 || B,8 | C4 B,4 | C4 (B,2 A,2) |{A,} G,8 || B,8 | B,4 B,4 | C8 || G,8 | %11
 A,4 A,4 | A,4 D4 | C8 |] %14
V:4
 (A,,6 C,2) | D,4 B,,4 | E,8 || G,8 | A,4 G,4 | F,4 B,,4 | E,8 || E,8 | E,4 D,4 | C,8 || B,,8 | %11
 A,,4 C,4 | D,4 E,4 | A,,8 |] %14
V:5
 c6 A2 | F4 d2 B2 |{A} G8 || e6 d2 | c4 e4 | e4 ^d4 | e8 || G6 [FA]2 | [GB]4 f2 e2 | e8 || [Gd]8 | %11
 [Ac]4 e4 | f4 G4 | A8 |] %14
V:6
 [CE]8 | D4 [DF]4 | E8 || [EB]8 | [EA]4 [EB]4 | [Ac]4 [FAB]4 | [EGB]8 || E8- | E4 G4 | A8 || E8- | %11
 E4 [EA]4 | [FA]4 [B,DE]4 | [CE]8 |] %14
V:7
 A,8- | A,4 B,4 | B,8 || x8 | x8 | x8 | x8 || B,8 | B,4 B,4 | x8 || x8 | x8 | x8 | x8 |] %14
V:8
 A,,6 C,2 | D,4 B,,4 | E,8 || [G,,G,]8 | [A,,A,]4 [G,,G,]4 | [F,,F,]4 [B,,F,]4 | [E,G,]8 || E,8- | %8
 E,4 D,4 | [C,A,C]8 || [B,,E,B,]8 | [A,,E,A,]4 [C,,C,]4 | [D,,D,]4 [E,,E,]4 | [A,,A,]8 |] %14

